X: 1
T:the Congress Reel
R:Reel
O:Ireland
M:4/4
K:GDor
eAAG A2Bd|eaaf gfed|eAAA fAAA|B2BA GABd|\
eAAG A2Bd|eaaf gfed|
cBcd e2ed|cABG A4::\
eaag a2ag|eaag egdg|
egdg egdg|eaab aged|\
eaag a2ag|eaag eged|cBcd eged|(3cBA BG A4:|
